;FLAVOR:Marlin
;TIME:13358
;Filament used: 4.72393m
;Layer height: 0.1
;MINX:69.551
;MINY:79.1
;MINZ:0.2
;MAXX:150.449
;MAXY:140.9
;MAXZ:14
;TARGET_MACHINE.NAME:Creality Ender-3 Pro
;Generated with Cura_SteamEngine 5.8.1
M82 ;absolute extrusion mode
; Ender 3 Custom Start G-code
G92 E0 ; Reset Extruder
G28 ; Home all axes
G1 Z5.0 F3000 ; Move Z Axis up a bit during heating to not damage bed
M104 S175 ; Start heating up the nozzle most of the way
M190 S60 ; Start heating the bed, wait until target temperature reached
M109 S210 ; Finish heating the nozzle
G1 Z2.0 F3000 ; Move Z Axis up little to prevent scratching of Heat Bed
G1 X0.1 Y20 Z0.3 F5000.0 ; Move to start position
G1 X0.1 Y200.0 Z0.3 F1500.0 E15 ; Draw the first line
G1 X0.4 Y200.0 Z0.3 F5000.0 ; Move to side a little
G1 X0.4 Y20 Z0.3 F1500.0 E30 ; Draw the second line
G92 E0 ; Reset Extruder
G1 Z2.0 F3000 ; Move Z Axis up little to prevent scratching of Heat Bed
G1 X5 Y20 Z0.3 F5000.0 ; Move over to prevent blob squish
G92 E0
G92 E0
G1 F2700 E-7
;LAYER_COUNT:139
;LAYER:0
M107
M204 S500
G0 F9000 X73.007 Y82.113 Z0.2
;TYPE:SKIRT
G1 F2700 E0
G1 F2400 X73.743 Y81.476 E0.03237
G1 X74.475 Y80.946 E0.06243
G1 X75.372 Y80.411 E0.09717
G1 X76.25 Y79.99 E0.12956
G1 X77.163 Y79.648 E0.16198
G1 X78.1 Y79.389 E0.19432
G1 X79.067 Y79.211 E0.22702
G1 X80.206 Y79.115 E0.26504
G1 X80.863 Y79.1 E0.2869
G1 X103.295 Y79.1 E1.03299
G1 X104.229 Y79.117 E1.06406
G1 X105.2 Y79.181 E1.09642
G1 X106.163 Y79.331 E1.12884
G1 X107.108 Y79.565 E1.16122
G1 X108.028 Y79.881 E1.19357
G1 X108.881 Y80.259 E1.2246
G1 X109.481 Y80.581 E1.24725
G1 X112.102 Y82.05 E1.34719
G1 X114.361 Y83.228 E1.43192
G1 X116.577 Y84.305 E1.51387
G1 X118.924 Y85.366 E1.59954
G1 X121.203 Y86.318 E1.68169
G1 X123.625 Y87.252 E1.76802
G1 X125.912 Y88.057 E1.84866
G1 X128.355 Y88.841 E1.934
G1 X130.758 Y89.541 E2.01725
G1 X133.202 Y90.175 E2.10122
G1 X135.665 Y90.742 E2.18529
G1 X138.134 Y91.236 E2.26903
G1 X140.591 Y91.658 E2.35195
G1 X141.194 Y91.753 E2.37225
G1 X142.146 Y91.951 E2.4046
G1 X143.079 Y92.231 E2.43699
G1 X143.918 Y92.565 E2.46703
G1 X144.852 Y93.036 E2.50182
G1 X145.677 Y93.552 E2.53419
G1 X146.453 Y94.139 E2.56655
G1 X147.176 Y94.793 E2.59897
G1 X147.837 Y95.507 E2.63134
G1 X148.433 Y96.278 E2.66375
G1 X148.94 Y97.068 E2.69497
G1 X149.407 Y97.962 E2.72852
G1 X149.78 Y98.862 E2.76092
G1 X150.071 Y99.791 E2.7933
G1 X150.28 Y100.742 E2.82568
G1 X150.397 Y101.637 E2.8557
G1 X150.436 Y102.309 E2.87809
G1 X150.449 Y102.933 E2.89885
G1 X150.448 Y106.836 E3.02867
G1 X150.42 Y108.806 E3.09419
G1 X150.42 Y111.426 E3.18134
G1 X150.447 Y112.7 E3.22372
G1 X150.448 Y116.813 E3.36052
G1 X150.436 Y117.576 E3.3859
G1 X150.378 Y118.549 E3.41832
G1 X150.232 Y119.512 E3.45071
G1 X150.001 Y120.458 E3.4831
G1 X149.688 Y121.381 E3.51552
G1 X149.296 Y122.272 E3.54789
G1 X148.844 Y123.095 E3.57912
G1 X148.282 Y123.932 E3.61266
G1 X147.716 Y124.635 E3.64267
G1 X146.99 Y125.388 E3.67746
G1 X146.253 Y126.024 E3.70984
G1 X145.463 Y126.594 E3.74224
G1 X144.687 Y127.057 E3.7723
G1 X143.746 Y127.51 E3.80703
G1 X142.835 Y127.851 E3.83939
G1 X141.903 Y128.111 E3.87157
G1 X141.179 Y128.251 E3.8961
G1 X138.969 Y128.605 E3.97054
G1 X136.511 Y129.065 E4.05371
G1 X133.996 Y129.61 E4.1393
G1 X131.605 Y130.198 E4.2212
G1 X129.119 Y130.885 E4.30698
G1 X126.768 Y131.609 E4.3888
G1 X124.36 Y132.423 E4.47334
G1 X121.98 Y133.304 E4.55775
G1 X119.695 Y134.225 E4.63969
G1 X117.317 Y135.262 E4.72598
G1 X115.094 Y136.307 E4.80767
G1 X112.822 Y137.455 E4.89234
G1 X110.615 Y138.648 E4.97578
G1 X109.09 Y139.511 E5.03406
G1 X108.251 Y139.93 E5.06526
G1 X107.312 Y140.299 E5.09881
G1 X106.411 Y140.565 E5.13006
G1 X105.408 Y140.764 E5.16407
G1 X104.074 Y140.886 E5.20862
G1 X103.416 Y140.9 E5.23051
G1 X81.1 Y140.899 E5.97274
G1 X80.367 Y140.887 E5.99713
G1 X79.395 Y140.828 E6.02952
G1 X78.432 Y140.682 E6.06191
G1 X77.485 Y140.451 E6.09433
G1 X76.597 Y140.151 E6.12551
G1 X75.705 Y139.761 E6.15789
G1 X74.822 Y139.274 E6.19143
G1 X74.071 Y138.772 E6.22147
G1 X73.256 Y138.114 E6.25631
G1 X72.558 Y137.436 E6.28868
G1 X71.922 Y136.699 E6.32105
G1 X71.352 Y135.909 E6.35345
G1 X70.89 Y135.133 E6.38349
G1 X70.436 Y134.191 E6.41827
G1 X70.107 Y133.313 E6.44946
G1 X69.838 Y132.34 E6.48303
G1 X69.661 Y131.373 E6.51573
G1 X69.565 Y130.208 E6.55461
G1 X69.551 Y129.558 E6.57623
G1 X69.552 Y114.653 E7.07198
G1 X69.568 Y113.583 E7.10757
G1 X69.631 Y111.355 E7.1817
G1 X69.631 Y108.822 E7.26595
G1 X69.555 Y105.862 E7.36443
G1 X69.552 Y90.625 E7.87122
G1 X69.563 Y89.925 E7.8945
G1 X69.621 Y88.952 E7.92692
G1 X69.767 Y87.989 E7.95932
G1 X69.997 Y87.043 E7.9917
G1 X70.31 Y86.12 E8.02411
G1 X70.702 Y85.23 E8.05646
G1 X71.172 Y84.377 E8.08885
G1 X71.715 Y83.569 E8.12123
G1 X72.282 Y82.865 E8.1513
G1 X73.007 Y82.113 E8.18604
G0 F9000 X73.269 Y82.415
G1 F2400 X73.978 Y81.8 E8.21726
G1 X74.71 Y81.27 E8.24731
G1 X75.546 Y80.771 E8.2797
G1 X76.391 Y80.364 E8.31089
G1 X77.27 Y80.033 E8.34213
G1 X78.173 Y79.782 E8.3733
G1 X79.101 Y79.61 E8.40469
G1 X80.24 Y79.514 E8.44271
G1 X80.872 Y79.5 E8.46374
G1 X103.288 Y79.5 E9.2093
G1 X104.203 Y79.516 E9.23973
G1 X105.139 Y79.576 E9.27093
G1 X106.067 Y79.719 E9.30216
G1 X106.978 Y79.943 E9.33336
G1 X107.866 Y80.247 E9.36458
G1 X108.692 Y80.612 E9.39461
G1 X109.285 Y80.93 E9.417
G1 X111.917 Y82.405 E9.51735
G1 X114.186 Y83.588 E9.60245
G1 X116.412 Y84.67 E9.68477
G1 X118.759 Y85.73 E9.77043
G1 X121.059 Y86.691 E9.85333
G1 X123.485 Y87.626 E9.93981
G1 X125.79 Y88.438 E10.02109
G1 X128.236 Y89.223 E10.10653
G1 X130.651 Y89.926 E10.19019
G1 X133.112 Y90.565 E10.27476
G1 X135.575 Y91.132 E10.35882
G1 X138.066 Y91.63 E10.44331
G1 X140.529 Y92.053 E10.52643
G1 X141.113 Y92.145 E10.54609
G1 X142.031 Y92.334 E10.57727
G1 X142.931 Y92.603 E10.60851
G1 X143.77 Y92.937 E10.63854
G1 X144.64 Y93.375 E10.67094
G1 X145.436 Y93.871 E10.70213
G1 X146.185 Y94.436 E10.73334
G1 X146.883 Y95.065 E10.76459
G1 X147.521 Y95.752 E10.79577
G1 X148.096 Y96.494 E10.827
G1 X148.603 Y97.284 E10.85822
G1 X149.038 Y98.116 E10.88944
G1 X149.398 Y98.982 E10.92064
G1 X149.68 Y99.877 E10.95185
G1 X149.883 Y100.794 E10.98308
G1 X150 Y101.689 E11.01311
G1 X150.036 Y102.317 E11.03403
G1 X150.049 Y102.933 E11.05452
G1 X150.048 Y106.83 E11.18414
G1 X150.02 Y108.8 E11.24966
G1 X150.02 Y111.426 E11.33701
G1 X150.047 Y112.7 E11.37939
G1 X150.048 Y116.807 E11.51599
G1 X150.037 Y117.553 E11.5408
G1 X149.982 Y118.49 E11.57202
G1 X149.843 Y119.418 E11.60323
G1 X149.622 Y120.33 E11.63444
G1 X149.322 Y121.22 E11.66568
G1 X148.945 Y122.079 E11.69688
G1 X148.493 Y122.902 E11.72811
G1 X147.97 Y123.681 E11.75932
G1 X147.404 Y124.384 E11.78934
G1 X146.728 Y125.086 E11.82175
G1 X146.019 Y125.7 E11.85295
G1 X145.258 Y126.25 E11.88417
G1 X144.482 Y126.713 E11.91423
G1 X143.605 Y127.136 E11.94661
G1 X142.727 Y127.466 E11.97781
G1 X141.827 Y127.718 E12.0089
G1 X141.116 Y127.856 E12.03299
G1 X138.906 Y128.21 E12.10743
G1 X136.426 Y128.674 E12.19134
G1 X133.911 Y129.219 E12.27694
G1 X131.498 Y129.813 E12.35959
G1 X129.012 Y130.5 E12.44537
G1 X126.64 Y131.23 E12.52792
G1 X124.232 Y132.044 E12.61246
G1 X121.83 Y132.933 E12.69765
G1 X119.535 Y133.858 E12.77994
G1 X117.157 Y134.895 E12.86623
G1 X114.924 Y135.945 E12.9483
G1 X112.632 Y137.103 E13.03371
G1 X110.425 Y138.296 E13.11715
G1 X108.911 Y139.153 E13.17502
G1 X108.072 Y139.572 E13.20621
G1 X107.199 Y139.915 E13.23741
G1 X106.298 Y140.181 E13.26865
G1 X105.371 Y140.366 E13.30009
G1 X104.065 Y140.486 E13.34371
G1 X103.416 Y140.5 E13.3653
G1 X81.106 Y140.499 E14.10734
G1 X80.391 Y140.488 E14.13112
G1 X79.454 Y140.432 E14.16234
G1 X78.526 Y140.293 E14.19355
G1 X77.613 Y140.072 E14.22479
G1 X76.757 Y139.784 E14.25483
G1 X75.865 Y139.394 E14.28721
G1 X75.044 Y138.941 E14.3184
G1 X74.293 Y138.439 E14.34845
G1 X73.534 Y137.827 E14.38087
G1 X72.86 Y137.174 E14.41209
G1 X72.246 Y136.465 E14.44328
G1 X71.696 Y135.704 E14.47451
G1 X71.234 Y134.928 E14.50455
G1 X70.811 Y134.051 E14.53693
G1 X70.482 Y133.173 E14.56812
G1 X70.231 Y132.268 E14.59936
G1 X70.06 Y131.34 E14.63074
G1 X69.964 Y130.175 E14.66962
G1 X69.951 Y129.558 E14.69015
G1 X69.952 Y114.659 E15.18569
G1 X69.968 Y113.594 E15.22112
G1 X70.031 Y111.366 E15.29525
G1 X70.031 Y108.822 E15.37986
G1 X69.955 Y105.862 E15.47835
G1 X69.952 Y90.631 E15.98493
G1 X69.962 Y89.948 E16.00765
G1 X70.017 Y89.011 E16.03887
G1 X70.156 Y88.083 E16.07008
G1 X70.376 Y87.171 E16.10128
G1 X70.676 Y86.281 E16.13252
G1 X71.053 Y85.422 E16.16372
G1 X71.504 Y84.6 E16.1949
G1 X72.027 Y83.82 E16.22614
G1 X72.594 Y83.116 E16.2562
G1 X73.269 Y82.415 E16.28857
G0 F9000 X73.532 Y82.717
G1 F2400 X74.213 Y82.124 E16.31861
G1 X74.945 Y81.594 E16.34866
G1 X75.72 Y81.131 E16.37869
G1 X76.533 Y80.738 E16.40872
G1 X77.378 Y80.418 E16.43878
G1 X78.247 Y80.175 E16.46879
G1 X79.135 Y80.009 E16.49884
G1 X80.274 Y79.913 E16.53685
G1 X80.881 Y79.9 E16.55705
G1 X103.281 Y79.9 E17.30207
G1 X104.178 Y79.915 E17.33191
G1 X105.079 Y79.971 E17.36194
G1 X105.972 Y80.107 E17.39198
G1 X106.849 Y80.322 E17.42201
G1 X107.704 Y80.613 E17.45205
G1 X108.53 Y80.978 E17.48209
G1 X109.089 Y81.279 E17.5032
G1 X111.732 Y82.76 E17.60397
G1 X114.011 Y83.948 E17.68945
G1 X116.247 Y85.035 E17.77214
G1 X118.594 Y86.094 E17.85778
G1 X120.915 Y87.064 E17.94145
G1 X123.345 Y88 E18.02806
G1 X125.668 Y88.819 E18.10999
G1 X128.117 Y89.605 E18.19553
G1 X130.544 Y90.311 E18.2796
G1 X133.022 Y90.955 E18.36476
G1 X135.485 Y91.522 E18.44882
G1 X137.998 Y92.024 E18.53405
G1 X140.467 Y92.448 E18.61738
G1 X141.033 Y92.537 E18.63643
G1 X141.917 Y92.717 E18.66644
G1 X142.783 Y92.975 E18.69649
G1 X143.622 Y93.309 E18.72653
G1 X144.429 Y93.715 E18.75657
G1 X145.196 Y94.191 E18.7866
G1 X145.918 Y94.734 E18.81664
G1 X146.59 Y95.337 E18.84667
G1 X147.205 Y95.998 E18.8767
G1 X147.76 Y96.711 E18.90676
G1 X148.249 Y97.47 E18.93679
G1 X148.669 Y98.27 E18.96684
G1 X149.017 Y99.103 E18.99686
G1 X149.29 Y99.964 E19.02691
G1 X149.486 Y100.846 E19.05696
G1 X149.603 Y101.741 E19.08698
G1 X149.636 Y102.326 E19.10647
G1 X149.649 Y102.933 E19.12666
G1 X149.648 Y106.824 E19.25607
G1 X149.62 Y108.794 E19.3216
G1 X149.62 Y111.426 E19.40914
G1 X149.647 Y112.7 E19.45153
G1 X149.648 Y116.802 E19.58796
G1 X149.638 Y117.53 E19.61218
G1 X149.586 Y118.432 E19.64223
G1 X149.454 Y119.325 E19.67225
G1 X149.243 Y120.203 E19.70228
G1 X148.956 Y121.06 E19.73234
G1 X148.594 Y121.887 E19.76237
G1 X148.161 Y122.679 E19.79239
G1 X147.658 Y123.43 E19.82246
G1 X147.092 Y124.133 E19.85247
G1 X146.466 Y124.784 E19.88251
G1 X145.784 Y125.376 E19.91255
G1 X145.053 Y125.906 E19.94258
G1 X144.277 Y126.369 E19.97264
G1 X143.464 Y126.762 E20.00267
G1 X142.619 Y127.081 E20.03271
G1 X141.75 Y127.325 E20.06273
G1 X141.053 Y127.461 E20.08635
G1 X138.843 Y127.815 E20.16079
G1 X136.341 Y128.283 E20.24545
G1 X133.826 Y128.828 E20.33104
G1 X131.391 Y129.428 E20.41445
G1 X128.905 Y130.115 E20.50024
G1 X126.512 Y130.851 E20.58351
G1 X124.104 Y131.665 E20.66805
G1 X121.691 Y132.558 E20.75363
G1 X119.375 Y133.491 E20.83667
G1 X116.997 Y134.528 E20.92296
G1 X114.754 Y135.583 E21.0054
G1 X112.442 Y136.751 E21.09156
G1 X110.235 Y137.944 E21.175
G1 X108.732 Y138.795 E21.23245
G1 X107.925 Y139.2 E21.26248
G1 X107.085 Y139.532 E21.29252
G1 X106.219 Y139.789 E21.32256
G1 X105.334 Y139.968 E21.3526
G1 X104.056 Y140.086 E21.39528
G1 X103.416 Y140.1 E21.41657
G1 X81.112 Y140.099 E22.15841
G1 X80.414 Y140.089 E22.18163
G1 X79.512 Y140.036 E22.21168
G1 X78.619 Y139.904 E22.2417
G1 X77.741 Y139.693 E22.27174
G1 X76.885 Y139.405 E22.30178
G1 X76.058 Y139.043 E22.3318
G1 X75.266 Y138.608 E22.36185
G1 X74.515 Y138.106 E22.3919
G1 X73.812 Y137.539 E22.42194
G1 X73.162 Y136.912 E22.45198
G1 X72.57 Y136.23 E22.48201
G1 X72.04 Y135.499 E22.51205
G1 X71.578 Y134.723 E22.54208
G1 X71.185 Y133.91 E22.57212
G1 X70.867 Y133.065 E22.60215
G1 X70.624 Y132.195 E22.63219
G1 X70.459 Y131.307 E22.66223
G1 X70.364 Y130.166 E22.70031
G1 X70.351 Y129.558 E22.72054
G1 X70.352 Y114.665 E23.21588
G1 X70.368 Y113.605 E23.25114
G1 X70.431 Y111.377 E23.32527
G1 X70.431 Y108.822 E23.41025
G1 X70.4 Y107.379 E23.45826
G1 X70.355 Y105.862 E23.50874
G1 X70.352 Y90.636 E24.01516
G1 X70.361 Y89.971 E24.03728
G1 X70.413 Y89.069 E24.06733
G1 X70.545 Y88.176 E24.09735
G1 X70.755 Y87.298 E24.12738
G1 X71.042 Y86.441 E24.15744
G1 X71.404 Y85.614 E24.18746
G1 X71.837 Y84.822 E24.21748
G1 X72.339 Y84.071 E24.24753
G1 X72.906 Y83.367 E24.27759
G1 X73.532 Y82.717 E24.30761
G1 F2700 E17.30761
G0 F9000 X104.209 Y89.438
G0 X140.102 Y101.95
G0 X140.102 Y108.051
G0 X132.444 Y109.198
G1 F2700 E24.30761
G1 F2400 X134.683 Y109.198 E24.38208
G1 X134.646 Y109.955 E24.40729
G1 X134.646 Y110.046 E24.41031
G1 X134.678 Y110.803 E24.43551
G1 X132.432 Y110.803 E24.51022
G1 X132.459 Y110.536 E24.51914
G1 X132.462 Y110.504 E24.52021
G1 X132.491 Y110.075 E24.53451
G1 X132.491 Y109.945 E24.53884
G1 X132.444 Y109.198 E24.56373
G0 F9000 X132.042 Y109.172
G1 F2400 X132.04 Y109.15 E24.56447
G1 X132.005 Y108.807 E24.57593
G1 X132.013 Y108.798 E24.57633
G1 X135.072 Y108.798 E24.67808
G1 X135.102 Y108.832 E24.67958
G1 X135.046 Y109.975 E24.71765
G1 X135.046 Y110.029 E24.71944
G1 X135.089 Y111.04 E24.7531
G1 X135.09 Y111.067 E24.754
G1 X135.098 Y111.155 E24.75694
G1 X135.056 Y111.203 E24.75906
G1 X132.013 Y111.203 E24.86027
G1 X131.995 Y111.185 E24.86111
G1 X131.995 Y111.156 E24.86208
G1 X132.061 Y110.496 E24.88414
G1 X132.063 Y110.477 E24.88478
G1 X132.092 Y110.048 E24.89908
G1 X132.092 Y109.97 E24.90167
G1 X132.042 Y109.172 E24.92826
G0 F9000 X131.643 Y109.197
G1 F2400 X131.642 Y109.19 E24.9285
G1 X131.582 Y108.595 E24.94839
G1 X131.691 Y108.559 E24.95221
G1 X131.74 Y108.506 E24.95461
G1 X131.81 Y108.398 E24.95889
G1 X135.273 Y108.398 E25.07407
G1 X135.335 Y108.501 E25.07807
G1 X135.429 Y108.583 E25.08222
G1 X135.506 Y108.598 E25.08483
G1 X135.514 Y108.598 E25.08509
G1 X135.445 Y109.994 E25.13158
G1 X135.445 Y110.012 E25.13218
G1 X135.488 Y111.023 E25.16583
G1 X135.489 Y111.032 E25.16614
G1 X135.521 Y111.403 E25.17852
G1 X135.497 Y111.403 E25.17932
G1 X135.378 Y111.442 E25.18348
G1 X135.329 Y111.495 E25.18589
G1 X135.259 Y111.603 E25.19017
G1 X131.82 Y111.603 E25.30455
G1 X131.744 Y111.491 E25.30905
G1 X131.645 Y111.414 E25.31322
G1 X131.599 Y111.406 E25.31477
G1 X131.594 Y111.148 E25.32336
G1 X131.663 Y110.457 E25.34645
G1 X131.664 Y110.45 E25.34669
G1 X131.693 Y110.021 E25.36099
G1 X131.693 Y109.995 E25.36185
G1 X131.643 Y109.197 E25.38845
G0 F9000 X132.87 Y109.598
G1 F2400 X134.264 Y109.598 E25.43481
G1 X134.247 Y109.935 E25.44604
G1 X134.246 Y110.063 E25.45029
G1 X134.26 Y110.403 E25.46161
G1 X132.87 Y110.403 E25.50784
G1 X132.89 Y110.102 E25.51788
G1 X132.89 Y109.92 E25.52393
G1 X132.87 Y109.598 E25.53466
G0 F9000 X133.289 Y109.998
G1 F2400 X133.847 Y109.998 E25.55322
G1 X133.847 Y110.003 E25.55339
G1 X133.289 Y110.003 E25.57194
G1 X133.289 Y109.998 E25.57211
G1 F2700 E18.57211
;MESH:abrazadera aiga boom cuadrado inyectores.stl
G0 F9000 X133.289 Y111.938
G0 X110 Y124.535
;TYPE:WALL-INNER
G1 F2700 E25.57211
G1 F1500 X119.916 Y117.197 E25.9824
G1 X120.008 Y117.024 E25.98892
G1 X120.128 Y116.909 E25.99445
G1 X120.407 Y116.796 E26.00446
G1 X138.848 Y116.796 E26.61781
G1 X138.848 Y113.2 E26.73741
G1 X111.252 Y113.2 E27.65526
G1 X111.252 Y115.203 E27.72188
G1 X111.147 Y115.441 E27.73053
G1 X111.01 Y115.583 E27.7371
G1 X110.727 Y115.7 E27.74728
G1 X100.386 Y115.697 E28.09122
G1 X100.11 Y115.597 E28.10099
G1 X99.91 Y115.367 E28.11112
G1 X99.848 Y115.178 E28.11774
G1 X99.848 Y104.818 E28.46232
G1 X99.979 Y104.521 E28.47311
G1 X100.211 Y104.344 E28.48282
G1 X100.386 Y104.299 E28.48883
