;FLAVOR:Marlin
;TIME:11003
;Filament used: 3.68935m
;Layer height: 0.1
;MINX:69.551
;MINY:85.102
;MINZ:0.2
;MAXX:150.449
;MAXY:134.898
;MAXZ:14
;TARGET_MACHINE.NAME:Creality Ender-3 Pro
;Generated with Cura_SteamEngine 5.8.1
M82 ;absolute extrusion mode
; Ender 3 Custom Start G-code
G92 E0 ; Reset Extruder
G28 ; Home all axes
G1 Z5.0 F3000 ; Move Z Axis up a bit during heating to not damage bed
M104 S175 ; Start heating up the nozzle most of the way
M190 S60 ; Start heating the bed, wait until target temperature reached
M109 S210 ; Finish heating the nozzle
G1 Z2.0 F3000 ; Move Z Axis up little to prevent scratching of Heat Bed
G1 X0.1 Y20 Z0.3 F5000.0 ; Move to start position
G1 X0.1 Y200.0 Z0.3 F1500.0 E15 ; Draw the first line
G1 X0.4 Y200.0 Z0.3 F5000.0 ; Move to side a little
G1 X0.4 Y20 Z0.3 F1500.0 E30 ; Draw the second line
G92 E0 ; Reset Extruder
G1 Z2.0 F3000 ; Move Z Axis up little to prevent scratching of Heat Bed
G1 X5 Y20 Z0.3 F5000.0 ; Move over to prevent blob squish
G92 E0
G92 E0
G1 F2700 E-7
;LAYER_COUNT:139
;LAYER:0
M107
M204 S500
G0 F9000 X73.741 Y87.481 Z0.2
;TYPE:SKIRT
G1 F2700 E0
G1 F2400 X74.53 Y86.913 E0.03234
G1 X75.367 Y86.415 E0.06473
G1 X76.245 Y85.994 E0.09711
G1 X77.158 Y85.652 E0.12954
G1 X78.096 Y85.392 E0.16192
G1 X79.062 Y85.214 E0.19459
G1 X80.206 Y85.117 E0.23277
G1 X80.881 Y85.102 E0.25523
G1 X111.411 Y85.103 E1.27066
G1 X112.154 Y85.116 E1.29538
G1 X113.127 Y85.177 E1.3278
G1 X114.089 Y85.324 E1.36017
G1 X115.029 Y85.554 E1.39236
G1 X115.752 Y85.792 E1.41767
G1 X116.607 Y86.108 E1.44799
G1 X117.644 Y86.509 E1.48497
G1 X120.014 Y87.345 E1.56856
G1 X122.41 Y88.115 E1.65226
G1 X124.819 Y88.816 E1.73571
G1 X127.266 Y89.453 E1.81981
G1 X129.762 Y90.027 E1.90499
G1 X132.188 Y90.515 E1.9873
G1 X134.638 Y90.935 E2.06998
G1 X137.165 Y91.295 E2.15487
G1 X139.765 Y91.59 E2.2419
G1 X140.564 Y91.67 E2.26861
G1 X141.527 Y91.813 E2.30099
G1 X142.475 Y92.04 E2.33341
G1 X143.398 Y92.349 E2.36579
G1 X144.289 Y92.738 E2.39812
G1 X145.114 Y93.188 E2.42938
G1 X145.953 Y93.749 E2.46295
G1 X146.712 Y94.359 E2.49534
G1 X147.389 Y95.009 E2.52655
G1 X148.053 Y95.77 E2.56014
G1 X148.624 Y96.559 E2.59254
G1 X149.124 Y97.396 E2.62496
G1 X149.547 Y98.272 E2.65732
G1 X149.891 Y99.183 E2.68971
G1 X150.153 Y100.12 E2.72207
G1 X150.334 Y101.088 E2.75482
G1 X150.434 Y102.258 E2.79388
G1 X150.449 Y102.933 E2.81633
G1 X150.448 Y106.836 E2.94615
G1 X150.42 Y108.806 E3.01168
G1 X150.42 Y111.426 E3.09882
G1 X150.447 Y112.7 E3.1412
G1 X150.448 Y116.783 E3.277
G1 X150.438 Y117.546 E3.30238
G1 X150.382 Y118.518 E3.33476
G1 X150.239 Y119.481 E3.36714
G1 X150.012 Y120.429 E3.39957
G1 X149.702 Y121.352 E3.43195
G1 X149.31 Y122.244 E3.46436
G1 X148.843 Y123.097 E3.4967
G1 X148.301 Y123.907 E3.52912
G1 X147.69 Y124.664 E3.56147
G1 X147.014 Y125.367 E3.59391
G1 X146.279 Y126.005 E3.62628
G1 X145.519 Y126.557 E3.65752
G1 X144.653 Y127.075 E3.69109
G1 X143.777 Y127.498 E3.72344
G1 X142.866 Y127.842 E3.75583
G1 X141.997 Y128.087 E3.78586
G1 X140.563 Y128.332 E3.83425
G1 X138.216 Y128.573 E3.91272
G1 X135.671 Y128.902 E3.99807
G1 X133.215 Y129.291 E4.08077
G1 X130.729 Y129.757 E4.1649
G1 X128.298 Y130.283 E4.24763
G1 X125.818 Y130.895 E4.33259
G1 X123.417 Y131.561 E4.41546
G1 X121.005 Y132.303 E4.49939
G1 X118.646 Y133.102 E4.58223
G1 X115.671 Y134.209 E4.68781
G1 X114.743 Y134.504 E4.7202
G1 X113.794 Y134.716 E4.75254
G1 X112.839 Y134.844 E4.78458
G1 X112.182 Y134.884 E4.80648
G1 X111.524 Y134.898 E4.82837
G1 X81.1 Y134.897 E5.84027
G1 X80.367 Y134.885 E5.86466
G1 X79.395 Y134.826 E5.89704
G1 X78.432 Y134.68 E5.92944
G1 X77.485 Y134.449 E5.96186
G1 X76.597 Y134.149 E5.99304
G1 X75.705 Y133.759 E6.02542
G1 X74.822 Y133.272 E6.05896
G1 X74.071 Y132.77 E6.089
G1 X73.256 Y132.112 E6.12384
G1 X72.558 Y131.434 E6.1562
G1 X71.922 Y130.697 E6.18858
G1 X71.352 Y129.907 E6.22098
G1 X70.89 Y129.131 E6.25102
G1 X70.436 Y128.189 E6.2858
G1 X70.107 Y127.311 E6.31699
G1 X69.838 Y126.338 E6.35056
G1 X69.661 Y125.371 E6.38326
G1 X69.565 Y124.206 E6.42214
G1 X69.551 Y123.556 E6.44376
G1 X69.552 Y114.653 E6.73988
G1 X69.568 Y113.583 E6.77547
G1 X69.631 Y111.355 E6.8496
G1 X69.631 Y108.822 E6.93385
G1 X69.555 Y105.862 E7.03233
G1 X69.552 Y96.656 E7.33853
G1 X69.563 Y95.932 E7.36261
G1 X69.621 Y94.959 E7.39503
G1 X69.766 Y93.996 E7.42742
G1 X69.986 Y93.083 E7.45866
G1 X70.307 Y92.127 E7.4922
G1 X70.7 Y91.236 E7.52459
G1 X71.151 Y90.414 E7.55577
G1 X71.712 Y89.575 E7.58934
G1 X72.278 Y88.871 E7.61938
G1 X73.004 Y88.118 E7.65417
G1 X73.741 Y87.481 E7.68657
G0 F9000 X73.975 Y87.805
G1 F2400 X74.735 Y87.256 E7.71776
G1 X75.541 Y86.775 E7.74897
G1 X76.386 Y86.368 E7.78017
G1 X77.265 Y86.037 E7.81141
G1 X78.169 Y85.785 E7.84262
G1 X79.096 Y85.613 E7.87398
G1 X80.24 Y85.516 E7.91217
G1 X80.881 Y85.502 E7.93349
G1 X111.404 Y85.503 E8.94869
G1 X112.13 Y85.515 E8.97284
G1 X113.067 Y85.572 E9.00406
G1 X113.995 Y85.713 E9.03528
G1 X114.904 Y85.934 E9.0664
G1 X115.613 Y86.167 E9.09122
G1 X116.463 Y86.481 E9.12136
G1 X117.504 Y86.883 E9.15847
G1 X119.892 Y87.726 E9.2427
G1 X122.291 Y88.497 E9.32651
G1 X124.711 Y89.201 E9.41034
G1 X127.176 Y89.843 E9.49506
G1 X129.672 Y90.417 E9.58024
G1 X132.113 Y90.908 E9.66306
G1 X134.582 Y91.331 E9.74637
G1 X137.109 Y91.691 E9.83127
G1 X139.725 Y91.988 E9.91884
G1 X140.506 Y92.066 E9.94494
G1 X141.435 Y92.202 E9.97617
G1 X142.348 Y92.419 E10.00739
G1 X143.238 Y92.716 E10.03859
G1 X144.098 Y93.09 E10.06978
G1 X144.892 Y93.521 E10.09983
G1 X145.703 Y94.061 E10.13224
G1 X146.435 Y94.648 E10.16345
G1 X147.112 Y95.298 E10.19466
G1 X147.729 Y96.005 E10.22587
G1 X148.281 Y96.765 E10.25711
G1 X148.764 Y97.57 E10.28834
G1 X149.173 Y98.414 E10.31953
G1 X149.506 Y99.291 E10.35073
G1 X149.76 Y100.194 E10.38193
G1 X149.935 Y101.122 E10.41334
G1 X150.035 Y102.292 E10.4524
G1 X150.049 Y102.933 E10.47372
G1 X150.048 Y106.83 E10.60334
G1 X150.02 Y108.8 E10.66887
G1 X150.02 Y111.426 E10.75621
G1 X150.047 Y112.7 E10.79859
G1 X150.048 Y116.778 E10.93422
G1 X150.039 Y117.523 E10.95901
G1 X149.986 Y118.46 E10.99022
G1 X149.85 Y119.389 E11.02145
G1 X149.633 Y120.302 E11.05266
G1 X149.335 Y121.192 E11.08388
G1 X148.959 Y122.052 E11.11509
G1 X148.51 Y122.875 E11.14628
G1 X147.989 Y123.656 E11.1775
G1 X147.401 Y124.387 E11.20871
G1 X146.751 Y125.065 E11.23994
G1 X146.044 Y125.681 E11.27113
G1 X145.284 Y126.233 E11.30237
G1 X144.479 Y126.715 E11.33358
G1 X143.635 Y127.124 E11.36478
G1 X142.757 Y127.457 E11.39601
G1 X141.888 Y127.702 E11.42604
G1 X140.522 Y127.934 E11.47212
G1 X138.165 Y128.176 E11.55093
G1 X135.62 Y128.505 E11.63628
G1 X133.152 Y128.896 E11.71939
G1 X130.644 Y129.366 E11.80426
G1 X128.213 Y129.892 E11.88698
G1 X125.722 Y130.507 E11.97232
G1 X123.299 Y131.179 E12.05595
G1 X120.877 Y131.924 E12.14023
G1 X118.506 Y132.727 E12.22349
G1 X115.549 Y133.828 E12.32844
G1 X114.655 Y134.114 E12.35966
G1 X113.74 Y134.32 E12.39085
G1 X112.815 Y134.445 E12.4219
G1 X112.173 Y134.484 E12.44329
G1 X111.524 Y134.498 E12.46488
G1 X81.106 Y134.497 E13.47659
G1 X80.391 Y134.486 E13.50037
G1 X79.454 Y134.43 E13.53159
G1 X78.526 Y134.291 E13.5628
G1 X77.613 Y134.07 E13.59405
G1 X76.757 Y133.782 E13.62409
G1 X75.865 Y133.392 E13.65647
G1 X75.044 Y132.939 E13.68765
G1 X74.293 Y132.437 E13.7177
G1 X73.534 Y131.825 E13.75013
G1 X72.86 Y131.172 E13.78134
G1 X72.246 Y130.463 E13.81253
G1 X71.696 Y129.702 E13.84376
G1 X71.234 Y128.926 E13.8738
G1 X70.811 Y128.049 E13.90619
G1 X70.482 Y127.171 E13.93737
G1 X70.231 Y126.266 E13.96861
G1 X70.06 Y125.338 E13.99999
G1 X69.964 Y124.173 E14.03887
G1 X69.951 Y123.556 E14.0594
G1 X69.952 Y114.659 E14.35531
G1 X69.968 Y113.594 E14.39074
G1 X70.031 Y111.366 E14.46487
G1 X70.031 Y108.822 E14.54949
G1 X69.955 Y105.862 E14.64797
G1 X69.952 Y96.662 E14.95396
G1 X69.962 Y95.955 E14.97748
G1 X70.017 Y95.018 E15.0087
G1 X70.155 Y94.09 E15.0399
G1 X70.375 Y93.177 E15.07114
G1 X70.673 Y92.288 E15.10232
G1 X71.051 Y91.428 E15.13357
G1 X71.502 Y90.606 E15.16475
G1 X72.024 Y89.826 E15.19597
G1 X72.59 Y89.122 E15.22601
G1 X73.266 Y88.42 E15.25843
G1 X73.975 Y87.805 E15.28965
G0 F9000 X74.21 Y88.129
G1 F2400 X74.941 Y87.599 E15.31968
G1 X75.715 Y87.135 E15.34969
G1 X76.528 Y86.742 E15.37973
G1 X77.373 Y86.422 E15.40978
G1 X78.243 Y86.178 E15.43983
G1 X79.13 Y86.012 E15.46985
G1 X80.274 Y85.915 E15.50803
G1 X80.881 Y85.902 E15.52823
G1 X111.398 Y85.903 E16.54322
G1 X112.106 Y85.914 E16.56678
G1 X113.008 Y85.968 E16.59683
G1 X113.901 Y86.102 E16.62686
G1 X114.779 Y86.314 E16.65691
G1 X115.474 Y86.542 E16.68123
G1 X116.319 Y86.854 E16.71119
G1 X117.364 Y87.257 E16.74844
G1 X119.77 Y88.107 E16.83332
G1 X122.172 Y88.879 E16.91723
G1 X124.603 Y89.586 E17.00144
G1 X127.086 Y90.233 E17.08678
G1 X129.582 Y90.807 E17.17196
G1 X132.038 Y91.301 E17.25529
G1 X134.526 Y91.727 E17.33924
G1 X137.053 Y92.087 E17.42414
G1 X139.685 Y92.386 E17.51224
G1 X140.449 Y92.462 E17.53778
G1 X141.343 Y92.591 E17.56782
G1 X142.222 Y92.799 E17.59786
G1 X143.079 Y93.083 E17.62789
G1 X143.907 Y93.442 E17.65791
G1 X144.701 Y93.873 E17.68796
G1 X145.453 Y94.373 E17.71799
G1 X146.158 Y94.937 E17.74802
G1 X146.811 Y95.562 E17.77809
G1 X147.406 Y96.241 E17.80811
G1 X147.938 Y96.971 E17.83816
G1 X148.404 Y97.745 E17.86821
G1 X148.799 Y98.557 E17.89824
G1 X149.121 Y99.4 E17.92825
G1 X149.367 Y100.269 E17.95829
G1 X149.536 Y101.156 E17.98832
G1 X149.636 Y102.326 E18.02738
G1 X149.649 Y102.933 E18.04757
G1 X149.648 Y106.824 E18.17699
G1 X149.62 Y108.794 E18.24252
G1 X149.62 Y111.426 E18.33006
G1 X149.647 Y112.7 E18.37244
G1 X149.648 Y116.774 E18.50794
G1 X149.64 Y117.501 E18.53213
G1 X149.59 Y118.403 E18.56217
G1 X149.461 Y119.297 E18.59221
G1 X149.253 Y120.176 E18.62226
G1 X148.968 Y121.033 E18.6523
G1 X148.608 Y121.861 E18.68233
G1 X148.177 Y122.654 E18.71234
G1 X147.677 Y123.406 E18.74238
G1 X147.112 Y124.111 E18.77243
G1 X146.488 Y124.764 E18.80247
G1 X145.808 Y125.358 E18.8325
G1 X145.078 Y125.89 E18.86254
G1 X144.304 Y126.355 E18.89258
G1 X143.492 Y126.75 E18.92261
G1 X142.648 Y127.072 E18.95266
G1 X141.779 Y127.317 E18.98268
G1 X140.481 Y127.536 E19.02647
G1 X138.114 Y127.779 E19.10561
G1 X135.569 Y128.108 E19.19096
G1 X133.089 Y128.501 E19.27447
G1 X130.559 Y128.975 E19.36009
G1 X128.128 Y129.501 E19.44281
G1 X125.626 Y130.119 E19.52853
G1 X123.181 Y130.797 E19.61292
G1 X120.749 Y131.545 E19.69755
G1 X118.366 Y132.352 E19.78123
G1 X115.426 Y133.447 E19.88557
G1 X114.566 Y133.724 E19.91563
G1 X113.686 Y133.924 E19.94564
G1 X112.791 Y134.046 E19.97568
G1 X112.164 Y134.084 E19.99658
G1 X111.524 Y134.098 E20.01787
G1 X81.112 Y134.097 E21.02938
G1 X80.414 Y134.087 E21.05259
G1 X79.512 Y134.034 E21.08265
G1 X78.619 Y133.902 E21.11267
G1 X77.741 Y133.691 E21.1427
G1 X76.885 Y133.403 E21.17274
G1 X76.058 Y133.041 E21.20277
G1 X75.266 Y132.606 E21.23282
G1 X74.515 Y132.104 E21.26287
G1 X73.812 Y131.537 E21.29291
G1 X73.162 Y130.91 E21.32294
G1 X72.57 Y130.228 E21.35298
G1 X72.04 Y129.497 E21.38301
G1 X71.578 Y128.721 E21.41305
G1 X71.185 Y127.908 E21.44308
G1 X70.867 Y127.063 E21.47311
G1 X70.624 Y126.193 E21.50316
G1 X70.459 Y125.305 E21.5332
G1 X70.364 Y124.164 E21.57128
G1 X70.351 Y123.556 E21.59151
G1 X70.352 Y114.665 E21.88722
G1 X70.368 Y113.605 E21.92248
G1 X70.431 Y111.377 E21.99661
G1 X70.431 Y108.822 E22.08159
G1 X70.4 Y107.379 E22.1296
G1 X70.355 Y105.862 E22.18008
G1 X70.352 Y96.667 E22.4859
G1 X70.361 Y95.978 E22.50882
G1 X70.413 Y95.076 E22.53887
G1 X70.544 Y94.183 E22.56889
G1 X70.754 Y93.304 E22.59895
G1 X71.04 Y92.448 E22.62897
G1 X71.402 Y91.62 E22.65902
G1 X71.835 Y90.828 E22.68905
G1 X72.336 Y90.077 E22.71907
G1 X72.902 Y89.373 E22.74912
G1 X73.528 Y88.722 E22.77916
G1 X74.21 Y88.129 E22.80921
G1 F2700 E15.80921
G0 F9000 X112.168 Y95.44
G0 X140.102 Y101.95
G0 X140.102 Y108.051
G0 X132.446 Y109.198
G1 F2700 E22.80921
G1 F2400 X134.655 Y109.198 E22.88269
G1 X134.642 Y109.32 E22.88677
G1 X134.638 Y109.391 E22.88913
G1 X134.62 Y109.935 E22.90724
G1 X134.62 Y110.011 E22.90976
G1 X134.651 Y110.729 E22.93367
G1 X134.655 Y110.787 E22.9356
G1 X134.657 Y110.803 E22.93614
G1 X132.418 Y110.803 E23.01061
G1 X132.463 Y110.129 E23.03307
G1 X132.465 Y110.066 E23.03517
G1 X132.467 Y109.527 E23.0531
G1 X132.464 Y109.451 E23.05563
G1 X132.446 Y109.198 E23.06406
G0 F9000 X132.034 Y109.049
G1 F2400 X132.032 Y109.027 E23.0648
G1 X132.008 Y108.808 E23.07213
G1 X132.017 Y108.798 E23.07257
G1 X135.086 Y108.798 E23.17465
G1 X135.098 Y108.809 E23.17519
G1 X135.04 Y109.362 E23.19368
G1 X135.037 Y109.404 E23.19508
G1 X135.019 Y109.948 E23.21319
G1 X135.02 Y109.994 E23.21472
G1 X135.051 Y110.712 E23.23862
G1 X135.053 Y110.747 E23.23979
G1 X135.098 Y111.188 E23.25453
G1 X135.085 Y111.203 E23.25519
G1 X132.034 Y111.203 E23.35667
G1 X131.994 Y111.158 E23.35867
G1 X131.994 Y111.153 E23.35884
G1 X132.064 Y110.102 E23.39387
G1 X132.065 Y110.064 E23.39513
G1 X132.067 Y109.525 E23.41306
G1 X132.065 Y109.48 E23.41456
G1 X132.034 Y109.049 E23.42893
G0 F9000 X131.635 Y109.07
G1 F2400 X131.583 Y108.594 E23.44486
G1 X131.696 Y108.557 E23.44881
G1 X131.743 Y108.508 E23.45107
G1 X131.817 Y108.398 E23.45548
G1 X135.276 Y108.398 E23.57053
G1 X135.357 Y108.513 E23.57521
G1 X135.457 Y108.588 E23.57936
G1 X135.521 Y108.598 E23.58152
G1 X135.438 Y109.403 E23.60843
G1 X135.437 Y109.417 E23.6089
G1 X135.419 Y109.961 E23.627
G1 X135.419 Y109.977 E23.62754
G1 X135.45 Y110.695 E23.65144
G1 X135.451 Y110.706 E23.65181
G1 X135.522 Y111.404 E23.67514
G1 X135.407 Y111.442 E23.67917
G1 X135.359 Y111.492 E23.68148
G1 X135.285 Y111.603 E23.68591
G1 X131.836 Y111.603 E23.80063
G1 X131.771 Y111.498 E23.80473
G1 X131.676 Y111.418 E23.80887
G1 X131.601 Y111.403 E23.81141
G1 X131.593 Y111.147 E23.81993
G1 X131.665 Y110.075 E23.85566
G1 X131.665 Y110.063 E23.85606
G1 X131.667 Y109.524 E23.87399
G1 X131.666 Y109.509 E23.87449
G1 X131.635 Y109.078 E23.88886
G1 X131.635 Y109.07 E23.88913
G0 F9000 X132.867 Y109.598
G1 F2400 X134.231 Y109.598 E23.93449
G1 X134.22 Y109.922 E23.94528
G1 X134.22 Y110.028 E23.9488
G1 X134.236 Y110.403 E23.96129
G1 X132.845 Y110.403 E24.00755
G1 X132.862 Y110.155 E24.01582
G1 X132.865 Y110.067 E24.01875
G1 X132.867 Y109.598 E24.03435
G0 F9000 X133.265 Y109.998
G1 F2400 X133.821 Y109.998 E24.05284
G1 X133.821 Y110.003 E24.05301
G1 X133.265 Y110.003 E24.0715
G1 X133.265 Y109.998 E24.07166
G1 F2700 E17.07166
;MESH:abrazadera varilla aiga boom cuadrado.stl
G0 F9000 X133.265 Y111.938
G0 X110 Y123.296
;TYPE:WALL-INNER
G1 F2700 E24.07166
G1 F1500 X111.67 Y123.296 E24.12721
G1 X119.916 Y117.197 E24.46834
G1 X120.008 Y117.024 E24.47486
G1 X120.128 Y116.909 E24.48038
G1 X120.407 Y116.796 E24.4904
G1 X138.848 Y116.796 E25.10375
G1 X138.848 Y113.2 E25.22335
G1 X111.252 Y113.2 E26.1412
G1 X111.252 Y115.1 E26.20439
G1 X111.202 Y115.341 E26.21258
G1 X111.088 Y115.514 E26.21947
G1 X110.874 Y115.659 E26.22807
G1 X110.732 Y115.7 E26.23298
G1 X100.371 Y115.7 E26.57759
G1 X100.136 Y115.613 E26.58592
G1 X99.987 Y115.485 E26.59246
G1 X99.848 Y115.166 E26.60403
G1 X99.848 Y104.83 E26.94781
G1 X99.935 Y104.583 E26.95652
G1 X100.054 Y104.443 E26.96263
G1 X100.371 Y104.296 E26.97425
G1 X110.731 Y104.296 E27.31883
G1 X110.873 Y104.337 E27.32374
G1 X111.147 Y104.555 E27.33539
G1 X111.252 Y104.793 E27.34404
G1 X111.252 Y106.796 E27.41066
G1 X138.848 Y106.796 E28.32851
G1 X138.848 Y103.2 E28.44811
G1 X120.377 Y103.2 E29.06246
G1 X120.175 Y103.107 E29.06985
G1 X119.997 Y102.922 E29.07839
G1 X111.743 Y96.7 E29.42218
G1 X81.148 Y96.7 E30.43978
G1 X81.148 Y105.296 E30.72568
G1 X91.426 Y105.296 E31.06753
G1 X91.718 Y105.42 E31.07808
G1 X91.91 Y105.674 E31.08867
G1 X91.952 Y105.896 E31.09619
